X: 86
T:Hippodrome Reel
M:2/4
L:1/8
Q:100
R:reel
K:D
|AG|FAdB AFDF|GABc d2cd|Bdcd Adcd|cgec ABAB|! 
FAdB AFDF|GABc d2cd|Bdcd Adcd|edce d2:||! 
K:Bb  |:dc|BFBd BFBd|cAFA BABd|edce dcBd|cdcA F^FGA|!
_BFBd BFBd|cAFA B ABc|dA^FA_B^cd_e|^fd_e^c d2:||
